X:1
T:The Bells of Aberdovey
T:The Bells of Aberdovey
T:Charles Dibdin 1786
C:Charles Dibdin 1786
L:1/8
Q:1/8=100
M:4/4
K:G
V:1 treble 
V:1
 B>c B>A Bd dc | B>c B>A Bd dc | BA cB AF GB/G/ | EA DF G G3 | B2 G2 d2 B2 | B2- Bd d3 c | %6
 BA cB AF GB/G/ | EA DF G G3 | B>c BA GB dD | EA FD D G3 | B>c BA Bc dB | AG FE D D3 | %12
 c>B AG Ad Dc | BA GA Bd Dc | BA cB Ad GB/G/ | EA DF G G3 || %16

